image/Vector.svg

<svg width="20" height="19" viewBox="0 0 20 19" fill="none" xmlns="http://www.w3.org/2000/svg">
<path fill-rule="evenodd" clip-rule="evenodd" d="M4 0C2.93913 0 1.92172 0.39906 1.17157 1.10939C0.421427 1.81972 0 2.78314 0 3.7877V15.1508C0 16.1553 0.421427 17.1188 1.17157 17.8291C1.92172 18.5394 2.93913 18.9385 4 18.9385H16C17.0609 18.9385 18.0783 18.5394 18.8284 17.8291C19.5786 17.1188 20 16.1553 20 15.1508V3.7877C20 2.78314 19.5786 1.81972 18.8284 1.10939C18.0783 0.39906 17.0609 0 16 0H4ZM2 3.7877C2 3.28542 2.21071 2.80371 2.58579 2.44854C2.96086 2.09338 3.46957 1.89385 4 1.89385H16C16.5304 1.89385 17.0391 2.09338 17.4142 2.44854C17.7893 2.80371 18 3.28542 18 3.7877V15.1508C18 15.6531 17.7893 16.1348 17.4142 16.4899C17.0391 16.8451 16.5304 17.0446 16 17.0446H4C3.46957 17.0446 2.96086 16.8451 2.58579 16.4899C2.21071 16.1348 2 15.6531 2 15.1508V3.7877ZM7 8.52232C7 8.27117 6.89464 8.03032 6.70711 7.85274C6.51957 7.67516 6.26522 7.57539 6 7.57539C5.73478 7.57539 5.48043 7.67516 5.29289 7.85274C5.10536 8.03032 5 8.27117 5 8.52232V14.2039C5 14.455 5.10536 14.6959 5.29289 14.8734C5.48043 15.051 5.73478 15.1508 6 15.1508C6.26522 15.1508 6.51957 15.051 6.70711 14.8734C6.89464 14.6959 7 14.455 7 14.2039V8.52232ZM7.5 5.20808C7.5 5.58479 7.34196 5.94607 7.06066 6.21245C6.77936 6.47882 6.39782 6.62847 6 6.62847C5.60218 6.62847 5.22064 6.47882 4.93934 6.21245C4.65804 5.94607 4.5 5.58479 4.5 5.20808C4.5 4.83137 4.65804 4.47009 4.93934 4.20372C5.22064 3.93734 5.60218 3.7877 6 3.7877C6.39782 3.7877 6.77936 3.93734 7.06066 4.20372C7.34196 4.47009 7.5 4.83137 7.5 5.20808ZM10 7.57539C10.34 7.57539 10.64 7.73637 10.82 7.98067C11.3354 7.71469 11.913 7.57534 12.5 7.57539C14.66 7.57539 16 9.39917 16 10.9569V14.2039C16 14.455 15.8946 14.6959 15.7071 14.8734C15.5196 15.051 15.2652 15.1508 15 15.1508C14.7348 15.1508 14.4804 15.051 14.2929 14.8734C14.1054 14.6959 14 14.455 14 14.2039V10.9559C14 10.2287 13.34 9.46829 12.5 9.46829C11.976 9.46829 11.397 9.73816 11 10.3802V14.2039C11 14.455 10.8946 14.6959 10.7071 14.8734C10.5196 15.051 10.2652 15.1508 10 15.1508C9.73478 15.1508 9.48043 15.051 9.29289 14.8734C9.10536 14.6959 9 14.455 9 14.2039V8.52232C9 8.27117 9.10536 8.03032 9.29289 7.85274C9.48043 7.67516 9.73478 7.57539 10 7.57539Z" fill="black"/>
</svg>

<svg width="20" height="19" fill="none" xmlns="http://www.w3.org/2000/svg"><path fill-rule="evenodd" clip-rule="evenodd" d="M4 0C2.94 0 1.922.4 1.172 1.11A3.689 3.689 0 000 3.787V15.15c0 1.004.421 1.968 1.172 2.678.75.71 1.767 1.11 2.828 1.11h12c1.06 0 2.078-.4 2.828-1.11A3.688 3.688 0 0020 15.151V3.788a3.688 3.688 0 00-1.172-2.679A4.116 4.116 0 0016 0H4zM2 3.788c0-.503.21-.984.586-1.34A2.058 2.058 0 014 1.895h12c.53 0 1.04.2 1.414.555.375.355.586.836.586 1.339V15.15c0 .502-.21.984-.586 1.339a2.058 2.058 0 01-1.414.555H4c-.53 0-1.04-.2-1.414-.555A1.844 1.844 0 012 15.15V3.789zm5 4.734a.922.922 0 00-.293-.67A1.03 1.03 0 006 7.576c-.265 0-.52.1-.707.278a.922.922 0 00-.293.67v5.68c0 .252.105.493.293.67.187.178.442.278.707.278.265 0 .52-.1.707-.278a.922.922 0 00.293-.67v-5.68zm.5-3.314c0 .377-.158.738-.44 1.004A1.544 1.544 0 016 6.628c-.398 0-.78-.15-1.06-.416a1.383 1.383 0 01-.44-1.004c0-.377.158-.738.44-1.004A1.544 1.544 0 016 3.788c.398 0 .78.15 1.06.416.282.266.44.627.44 1.004zM10 7.575c.34 0 .64.161.82.406a3.666 3.666 0 011.68-.406c2.16 0 3.5 1.824 3.5 3.382v3.247a.922.922 0 01-.293.67 1.03 1.03 0 01-.707.277c-.265 0-.52-.1-.707-.278a.922.922 0 01-.293-.67v-3.247c0-.727-.66-1.488-1.5-1.488-.524 0-1.103.27-1.5.912v3.824a.922.922 0 01-.293.67 1.03 1.03 0 01-.707.277c-.265 0-.52-.1-.707-.278a.922.922 0 01-.293-.67v-5.68c0-.252.105-.493.293-.67A1.03 1.03 0 0110 7.575z" fill="#000"/></svg>
